src/images/svg/symbols/xlm-usd.svg

<svg width="33" height="32" viewBox="0 0 33 32" fill="none" xmlns="http://www.w3.org/2000/svg">
<path d="M2.11328 11C2.11328 6.02944 6.14272 2 11.1133 2C16.0838 2 20.1133 6.02944 20.1133 11C20.1133 15.9706 16.0838 20 11.1133 20C6.14272 20 2.11328 15.9706 2.11328 11Z" fill="black"/>
<path d="M15.6133 7.54105V8.31859L6.61328 12.9046V12.1267L6.94037 11.9599C7.06211 11.8979 7.16278 11.8013 7.22973 11.6821C7.29667 11.563 7.32688 11.4268 7.31657 11.2905C7.30921 11.1943 7.30553 11.0977 7.30553 11.0008C7.30546 10.2987 7.49951 9.6102 7.86625 9.01147C8.23298 8.41275 8.75812 7.92708 9.38362 7.60815C10.0091 7.28922 10.7106 7.14943 11.4106 7.20425C12.1106 7.25907 12.7817 7.50636 13.35 7.91878L12.6371 8.28204C12.163 8.01722 11.6279 7.88087 11.0848 7.8865C10.5417 7.89213 10.0095 8.03954 9.54095 8.31413C9.07238 8.58871 8.68367 8.98096 8.41333 9.45199C8.14299 9.92303 8.0004 10.4565 7.99968 10.9996C7.99974 11.1357 8.00864 11.2717 8.02634 11.4067L15.6133 7.54105Z" fill="white"/>
<path d="M8.50878 12.7143L15.6133 9.09692V9.87218L15.2858 10.039C15.1642 10.1011 15.0636 10.1978 14.9967 10.3169C14.9299 10.436 14.8997 10.5722 14.91 10.7084C14.9172 10.8051 14.921 10.9029 14.921 11.0008C14.9208 11.7028 14.7265 12.3911 14.3596 12.9896C13.9927 13.5881 13.4675 14.0736 12.842 14.3923C12.2165 14.711 11.5151 14.8506 10.8152 14.7956C10.1154 14.7407 9.44432 14.4933 8.87623 14.0809L9.54868 13.7382L9.58675 13.718C10.061 13.9839 10.5966 14.1212 11.1403 14.1161C11.684 14.1111 12.2169 13.9639 12.6862 13.6892C13.1554 13.4146 13.5447 13.0219 13.8153 12.5503C14.0859 12.0787 14.2284 11.5445 14.2288 11.0008C14.2287 10.8638 14.2198 10.7269 14.2021 10.5911L6.61328 14.4579V13.6807L8.50878 12.7143Z" fill="white"/>
<path d="M12.1133 21C12.1133 16.0294 16.1427 12 21.1133 12C26.0838 12 30.1133 16.0294 30.1133 21C30.1133 25.9706 26.0838 30 21.1133 30C16.1427 30 12.1133 25.9706 12.1133 21Z" fill="white"/>
<path fill-rule="evenodd" clip-rule="evenodd" d="M20.7326 12C18.9993 12.0999 17.3987 12.6903 16.0656 13.6331H26.4516C25.1184 12.6903 23.5178 12.0999 21.7845 12H21.5076H20.7326ZM14.3057 15.2657C13.893 15.7672 13.5355 16.3149 13.2382 16.8987L24.0605 16.8988H29.279C28.9816 16.3151 28.6244 15.7673 28.2114 15.2658L24.2144 15.2657H14.3057ZM12.1504 20.1809C12.1995 19.6202 12.3008 19.0747 12.4486 18.5483H29.7656C29.9135 19.0746 30.0147 19.6202 30.064 20.1809H12.1504ZM12.1538 21.8143C12.2059 22.3753 12.3109 22.9208 12.4617 23.4469H29.7527C29.9037 22.9208 30.0085 22.3752 30.0606 21.8143H12.1538ZM14.1925 26.7129C13.7747 26.212 13.412 25.6642 13.1102 25.08H24.4614L29.1041 25.08C28.8023 25.6643 28.4396 26.212 28.0218 26.7129H23.6433L14.1925 26.7129ZM20.7266 29.969L20.7539 29.97L20.7811 29.971C20.8894 29.9749 20.9979 29.9775 21.1071 29.9775C23.0138 29.9775 24.7805 29.3734 26.2356 28.3463L23.3454 28.3462H15.9788C17.3363 29.3046 18.9657 29.8945 20.7266 29.969Z" fill="#F44336"/>
<path d="M20.922 12.0046C16.3131 12.0984 12.5566 15.6569 12.1523 20.1834H20.9221V12.0046H20.922Z" fill="#283991"/>
<path d="M13.9129 17.0851L14.05 17.5061H14.4939L14.1348 17.7664L14.2719 18.1877L13.9129 17.9273L13.5541 18.1877L13.691 17.7664L13.332 17.5061H13.7759L13.9129 17.0851Z" fill="#EFEFEF"/>
<path d="M13.9129 18.5725L14.05 18.9938H14.4939L14.1348 19.2541L14.2719 19.6754L13.9129 19.4149L13.5541 19.6754L13.691 19.2541L13.332 18.9938H13.7759L13.9129 18.5725Z" fill="#EFEFEF"/>
<path d="M15.4037 14.8534L15.5408 15.2746H15.9846L15.6255 15.5351L15.7626 15.9561L15.4037 15.6959L15.0447 15.9561L15.1818 15.5351L14.8226 15.2746H15.2665L15.4037 14.8534Z" fill="#EFEFEF"/>
<path d="M15.4037 16.3411L15.5408 16.7623H15.9846L15.6255 17.0224L15.7626 17.4438L15.4037 17.1836L15.0447 17.4438L15.1818 17.0224L14.8226 16.7623H15.2665L15.4037 16.3411Z" fill="#EFEFEF"/>
<path d="M15.4037 17.8288L15.5408 18.2501H15.9846L15.6255 18.5101L15.7626 18.9314L15.4037 18.671L15.0447 18.9314L15.1818 18.5101L14.8226 18.2501H15.2665L15.4037 17.8288Z" fill="#EFEFEF"/>
<path d="M12.7811 18.9314L12.6439 18.5101L13.003 18.2499H12.5593L12.5493 18.2192C12.5006 18.3696 12.4566 18.5218 12.416 18.6756L12.4223 18.671L12.7811 18.9314Z" fill="#EFEFEF"/>
<path d="M13.5541 16.7001L13.9129 16.4396L14.2719 16.7001L14.1348 16.2788L14.4938 16.0183H14.0499L13.9128 15.5973L13.7758 16.0183H13.6122C13.5818 16.0642 13.5524 16.1104 13.5229 16.157L13.691 16.2788L13.5541 16.7001Z" fill="#EFEFEF"/>
<path d="M15.4037 14.2082L15.7626 14.4684L15.6256 14.0474L15.9844 13.787H15.7281C15.5104 13.9494 15.3003 14.1213 15.0985 14.3026L15.0444 14.4684L15.4037 14.2082Z" fill="#EFEFEF"/>
<path d="M16.5355 13.7247L16.8946 13.4643L17.2534 13.7247L17.1164 13.3034L17.4752 13.0432H17.0315L17.0128 12.9865C16.8625 13.0632 16.7136 13.143 16.5682 13.2279L16.6724 13.3034L16.5355 13.7247Z" fill="#EFEFEF"/>
<path d="M16.8945 14.1097L17.0316 14.5306H17.4754L17.1163 14.7911L17.2534 15.2124L16.8945 14.9519L16.5355 15.2124L16.6726 14.7911L16.3134 14.5306H16.7573L16.8945 14.1097Z" fill="#EFEFEF"/>
<path d="M16.8945 15.5974L17.0316 16.0183H17.4754L17.1163 16.2788L17.2534 16.7001L16.8945 16.4396L16.5355 16.7001L16.6726 16.2788L16.3134 16.0183H16.7573L16.8945 15.5974Z" fill="#EFEFEF"/>
<path d="M16.8945 17.0851L17.0316 17.5061H17.4754L17.1163 17.7664L17.2534 18.1877L16.8945 17.9273L16.5355 18.1877L16.6726 17.7664L16.3134 17.5061H16.7573L16.8945 17.0851Z" fill="#EFEFEF"/>
<path d="M16.8945 18.5725L17.0316 18.9938H17.4754L17.1163 19.2541L17.2534 19.6754L16.8945 19.4149L16.5355 19.6754L16.6726 19.2541L16.3134 18.9938H16.7573L16.8945 18.5725Z" fill="#EFEFEF"/>
<path d="M18.3853 13.3658L18.5224 13.7869H18.9662L18.6073 14.0474L18.7442 14.4684L18.3853 14.2082L18.0262 14.4684L18.1634 14.0474L17.8043 13.7869H18.2481L18.3853 13.3658Z" fill="#EFEFEF"/>
<path d="M18.3853 14.8534L18.5224 15.2746H18.9662L18.6073 15.5351L18.7442 15.9561L18.3853 15.6959L18.0262 15.9561L18.1634 15.5351L17.8043 15.2746H18.2481L18.3853 14.8534Z" fill="#EFEFEF"/>
<path d="M18.3853 16.3411L18.5224 16.7623H18.9662L18.6073 17.0224L18.7442 17.4438L18.3853 17.1836L18.0262 17.4438L18.1634 17.0224L17.8043 16.7623H18.2481L18.3853 16.3411Z" fill="#EFEFEF"/>
<path d="M18.3853 17.8288L18.5224 18.2501H18.9662L18.6073 18.5101L18.7442 18.9314L18.3853 18.671L18.0262 18.9314L18.1634 18.5101L17.8043 18.2501H18.2481L18.3853 17.8288Z" fill="#EFEFEF"/>
<path d="M19.8762 12.6221L20.0132 13.0432H20.457L20.098 13.3034L20.235 13.7247L19.8762 13.4642L19.517 13.7247L19.6542 13.3034L19.2951 13.0432H19.7388L19.8762 12.6221Z" fill="#EFEFEF"/>
<path d="M19.8762 14.1097L20.0132 14.5306H20.457L20.098 14.7911L20.235 15.2124L19.8762 14.9519L19.517 15.2124L19.6542 14.7911L19.2951 14.5306H19.7388L19.8762 14.1097Z" fill="#EFEFEF"/>
<path d="M19.8762 15.5974L20.0132 16.0183H20.457L20.098 16.2788L20.235 16.7001L19.8762 16.4396L19.517 16.7001L19.6542 16.2788L19.2951 16.0183H19.7388L19.8762 15.5974Z" fill="#EFEFEF"/>
<path d="M19.8762 17.0851L20.0132 17.5061H20.457L20.098 17.7664L20.235 18.1877L19.8762 17.9273L19.517 18.1877L19.6542 17.7664L19.2951 17.5061H19.7388L19.8762 17.0851Z" fill="#EFEFEF"/>
<path d="M19.8762 18.5725L20.0132 18.9938H20.457L20.098 19.2541L20.235 19.6754L19.8762 19.4149L19.517 19.6754L19.6542 19.2541L19.2951 18.9938H19.7388L19.8762 18.5725Z" fill="#EFEFEF"/>
</svg>

<svg width="33" height="32" fill="none" xmlns="http://www.w3.org/2000/svg"><path d="M2.113 11a9 9 0 1 1 18 0 9 9 0 0 1-18 0Z" fill="#000"/><path d="M15.613 7.541v.778l-9 4.586v-.778l.327-.167a.692.692 0 0 0 .377-.67 3.797 3.797 0 0 1 .55-2.279A3.808 3.808 0 0 1 13.35 7.92l-.713.363a3.117 3.117 0 0 0-4.61 3.125l7.586-3.866ZM8.509 12.714l7.104-3.617v.775l-.327.167a.693.693 0 0 0-.376.67 3.807 3.807 0 0 1-6.034 3.373l.673-.344.038-.02a3.117 3.117 0 0 0 4.615-3.127l-7.589 3.867v-.777l1.896-.967ZM12.113 21a9 9 0 1 1 18 0 9 9 0 0 1-18 0Z" fill="#fff"/><path fill-rule="evenodd" clip-rule="evenodd" d="M20.733 12c-1.734.1-3.334.69-4.667 1.633h10.386A8.956 8.956 0 0 0 21.784 12H20.733Zm-6.427 3.266a8.985 8.985 0 0 0-1.068 1.633H29.28a8.978 8.978 0 0 0-1.068-1.633H14.306ZM12.15 20.18c.05-.56.15-1.106.299-1.633h17.317c.148.527.249 1.072.298 1.633H12.15Zm.004 1.633c.052.561.157 1.107.308 1.633h17.29a8.897 8.897 0 0 0 .309-1.633H12.154Zm2.039 4.899a8.99 8.99 0 0 1-1.083-1.633h15.994a8.987 8.987 0 0 1-1.082 1.633H14.193Zm6.534 3.256.027.001.027.001a8.86 8.86 0 0 0 5.455-1.625H15.979a8.859 8.859 0 0 0 4.748 1.623Z" fill="#F44336"/><path d="M20.922 12.005a8.991 8.991 0 0 0-8.77 8.178h8.77v-8.178Z" fill="#283991"/><path d="m13.913 17.085.137.421h.444l-.36.26.138.422-.36-.26-.358.26.137-.422-.359-.26h.444l.137-.42ZM13.913 18.573l.137.42h.444l-.36.261.138.421-.36-.26-.358.26.137-.42-.359-.261h.444l.137-.421ZM15.404 14.853l.137.422h.444l-.36.26.138.421-.36-.26-.358.26.137-.42-.36-.261h.445l.137-.422ZM15.404 16.341l.137.421h.444l-.36.26.138.422-.36-.26-.358.26.137-.422-.36-.26h.445l.137-.42ZM15.404 17.829l.137.421h.444l-.36.26.138.421-.36-.26-.358.26.137-.42-.36-.26h.445l.137-.422ZM12.781 18.931l-.137-.42.359-.261h-.444l-.01-.03c-.048.15-.092.302-.133.456l.006-.005.36.26ZM13.554 16.7l.359-.26.359.26-.137-.421.359-.26h-.444l-.137-.422-.137.421h-.164l-.09.139.169.122-.137.421ZM15.404 14.208l.359.26-.137-.42.358-.261h-.256a8.943 8.943 0 0 0-.63.516l-.054.165.36-.26ZM16.535 13.725l.36-.26.358.26-.137-.422.36-.26h-.444l-.02-.056c-.15.076-.298.156-.444.24l.104.076-.137.422ZM16.895 14.11l.137.42h.443l-.359.261.137.421-.358-.26-.36.26.138-.42-.36-.261h.444l.137-.421ZM16.895 15.597l.137.421h.443l-.359.26.137.422-.358-.26-.36.26.138-.421-.36-.26h.444l.137-.422ZM16.895 17.085l.137.421h.443l-.359.26.137.422-.358-.26-.36.26.138-.422-.36-.26h.444l.137-.42ZM16.895 18.573l.137.42h.443l-.359.261.137.421-.358-.26-.36.26.138-.42-.36-.261h.444l.137-.421ZM18.385 13.366l.137.42h.444l-.359.261.137.421-.359-.26-.359.26.137-.42-.359-.261h.444l.137-.421ZM18.385 14.853l.137.422h.444l-.359.26.137.421-.359-.26-.359.26.137-.42-.359-.261h.444l.137-.422ZM18.385 16.341l.137.421h.444l-.359.26.137.422-.359-.26-.359.26.137-.422-.359-.26h.444l.137-.42ZM18.385 17.829l.137.421h.444l-.359.26.137.421-.359-.26-.359.26.137-.42-.359-.26h.444l.137-.422ZM19.876 12.622l.137.421h.444l-.359.26.137.422-.359-.26-.359.26.137-.422-.359-.26h.444l.137-.42ZM19.876 14.11l.137.42h.444l-.359.261.137.421-.359-.26-.359.26.137-.42-.359-.261h.444l.137-.421ZM19.876 15.597l.137.421h.444l-.359.26.137.422-.359-.26-.359.26.137-.421-.359-.26h.444l.137-.422ZM19.876 17.085l.137.421h.444l-.359.26.137.422-.359-.26-.359.26.137-.422-.359-.26h.444l.137-.42ZM19.876 18.573l.137.42h.444l-.359.261.137.421-.359-.26-.359.26.137-.42-.359-.261h.444l.137-.421Z" fill="#EFEFEF"/></svg>
